svgs/thin/diagram-subtask.svg

<svg xmlns="http://www.w3.org/2000/svg" viewBox="0 0 512 512"><!--! Font Awesome Pro 6.6.0 by @fontawesome - https://fontawesome.com License - https://fontawesome.com/license (Commercial License) Copyright 2024 Fonticons, Inc. --><path d="M448 48c26.5 0 48 21.5 48 48l0 64c0 26.5-21.5 48-48 48L64 208c-26.5 0-48-21.5-48-48l0-64c0-26.5 21.5-48 48-48l384 0zM64 32C28.7 32 0 60.7 0 96l0 64c0 35.3 28.7 64 64 64l56 0 0 96c0 39.8 32.2 72 72 72l32 0 0 24c0 35.3 28.7 64 64 64l160 0c35.3 0 64-28.7 64-64l0-64c0-35.3-28.7-64-64-64l-160 0c-35.3 0-64 28.7-64 64l0 24-32 0c-30.9 0-56-25.1-56-56l0-96 312 0c35.3 0 64-28.7 64-64l0-64c0-35.3-28.7-64-64-64L64 32zM448 304c26.5 0 48 21.5 48 48l0 64c0 26.5-21.5 48-48 48l-160 0c-26.5 0-48-21.5-48-48l0-64c0-26.5 21.5-48 48-48l160 0z"/></svg>

<svg xmlns="http://www.w3.org/2000/svg" viewBox="0 0 512 512"><!--! Font Awesome Pro 6.4.2 by @fontawesome - https://fontawesome.com License - https://fontawesome.com/license (Commercial License) Copyright 2023 Fonticons, Inc. --><path d="M448 48c26.5 0 48 21.5 48 48v64c0 26.5-21.5 48-48 48H64c-26.5 0-48-21.5-48-48V96c0-26.5 21.5-48 48-48H448zM64 32C28.7 32 0 60.7 0 96v64c0 35.3 28.7 64 64 64h56v96c0 39.8 32.2 72 72 72h32v24c0 35.3 28.7 64 64 64H448c35.3 0 64-28.7 64-64V352c0-35.3-28.7-64-64-64H288c-35.3 0-64 28.7-64 64v24H192c-30.9 0-56-25.1-56-56V224H448c35.3 0 64-28.7 64-64V96c0-35.3-28.7-64-64-64H64zM448 304c26.5 0 48 21.5 48 48v64c0 26.5-21.5 48-48 48H288c-26.5 0-48-21.5-48-48V352c0-26.5 21.5-48 48-48H448z"/></svg>
